X: 277
T: Hunjiang long
%%abc-version 2.0
%%abcx-abcm2ps-target-version 5.9.1 (29 Sep 2008)
%%abc-creator hum2abc beta
%%abcx-conversion-date 2013/10/02 07:52:29
%%abc-edited-by Helmut Schaffrath
%%humdrum-veritas 1178490704
%%humdrum-veritas-data 4050938368
%%continueall 1
%%barnumbers 0
L: 1/8
M: 2/4
K: F
d f A e [I:setbarnb 1]| 
d4 | 
G2f3/ f/ | 
g e d c | 
A c G A | 
c4 | 
d f d c | 
d/ c/A2A/ G/ | 
A> GA2 | 
d f F3/ G/ | 
A> GA2 | 
d f c3/ A/ | 
G A G F | 
D F D C | 
F2F2 | 
G A G F | 
G/ F/D2D/ C/ | 
D E D E | 
D4 |]  



